X: 19869
T: Jesuitmont
R: slip jig
M: 9/8
K: Edorian
M:7/8
B|e2 e2 e2f|d2 B2 A2B|d2 d2 d2e|f2 a2 a2f|
g2 e2 fed|e2 B2 ABB|b2 g2 agf|e6f|
g2 g2 gab|a2 a2 aba|g2 e2 d2e|f2 a2 a3|
g2 e2 fed|e2 B2 A3|b2 g2 agf|e6|

